!!! OTL: Berkowitz190
!!! Chapter: 1
!!! Section: II
!!! Page: 45
!!! Mode: 
!!! Encoder: DJB
**kern
*staff1
*I"Piano
=1-
*clefF4
*k[b-e-a-]
*E-:
*M3/8
8BB-\L
8E-\
8F\J
=2
8G\L
8.B-\
16G\Jk
=3
8F\L
8.A-\
16F\Jk
=4
4E-\
16F\LL
16G\JJ
=5
4F\
8BB-/
=6
8C\L
8E-\
8A-\J
=7
8G\L
8.B-\
16G\Jk
=8
8F\L
8A-\
8F\J
=9
4.E-\
==
*-
